src/new/technology-icons/openshift-connectors.svg

<?xml version="1.0" encoding="UTF-8"?><svg id="uuid-2074ea1d-f3e4-4976-8512-457d3505d06e" xmlns="http://www.w3.org/2000/svg" viewBox="0 0 38 38"><defs><style>.uuid-b13ca3a9-13a7-4997-902c-f7ca389e9979{fill:#e00;}.uuid-989da6fd-310a-4408-bb69-3a3cb8053cfb{fill:#fff;}.uuid-c3c2ac93-21bd-48f4-9137-ec3866cef071{fill:#4d4d4d;}</style></defs><rect x="1" y="1" width="36" height="36" rx="9" ry="9"/><path class="uuid-c3c2ac93-21bd-48f4-9137-ec3866cef071" d="m28,2.25c4.27338,0,7.75,3.47665,7.75,7.75v18c0,4.27335-3.47662,7.75-7.75,7.75H10c-4.27338,0-7.75-3.47665-7.75-7.75V10c0-4.27335,3.47662-7.75,7.75-7.75h18m0-1.25H10C5.02942,1,1,5.02945,1,10v18c0,4.97055,4.02942,9,9,9h18c4.97058,0,9-4.02945,9-9V10c0-4.97055-4.02942-9-9-9h0Z"/><path class="uuid-989da6fd-310a-4408-bb69-3a3cb8053cfb" d="m22,25.625h-9c-.34473,0-.625-.28027-.625-.625s.28027-.625.625-.625h9c1.30957,0,2.375-1.06543,2.375-2.375s-1.06543-2.375-2.375-2.375h-7c-1.99902,0-3.625-1.62598-3.625-3.625s1.62598-3.625,3.625-3.625h10c.34473,0,.625.28027.625.625s-.28027.625-.625.625h-10c-1.30957,0-2.375,1.06543-2.375,2.375s1.06543,2.375,2.375,2.375h7c1.99902,0,3.625,1.62598,3.625,3.625s-1.62598,3.625-3.625,3.625Z"/><path class="uuid-b13ca3a9-13a7-4997-902c-f7ca389e9979" d="m25,16.625c-1.99902,0-3.625-1.62598-3.625-3.625s1.62598-3.625,3.625-3.625,3.625,1.62598,3.625,3.625-1.62598,3.625-3.625,3.625Zm0-6c-1.30957,0-2.375,1.06543-2.375,2.375s1.06543,2.375,2.375,2.375,2.375-1.06543,2.375-2.375-1.06543-2.375-2.375-2.375Z"/><path class="uuid-b13ca3a9-13a7-4997-902c-f7ca389e9979" d="m13,28.625c-1.99902,0-3.625-1.62598-3.625-3.625s1.62598-3.625,3.625-3.625,3.625,1.62598,3.625,3.625-1.62598,3.625-3.625,3.625Zm0-6c-1.30957,0-2.375,1.06543-2.375,2.375s1.06543,2.375,2.375,2.375,2.375-1.06543,2.375-2.375-1.06543-2.375-2.375-2.375Z"/></svg>

<svg xmlns="http://www.w3.org/2000/svg" viewBox="0 0 38 38">
    <rect width="36" height="36" x="1" y="1" rx="9" ry="9"/>
    <path d="M28 2.25c4.273 0 7.75 3.477 7.75 7.75v18c0 4.273-3.477 7.75-7.75 7.75H10c-4.273 0-7.75-3.477-7.75-7.75V10c0-4.273 3.477-7.75 7.75-7.75zM28 1H10a9 9 0 0 0-9 9v18a9 9 0 0 0 9 9h18a9 9 0 0 0 9-9V10a9 9 0 0 0-9-9" style="fill:#4d4d4d"/>
    <path d="M22 25.625h-9a.626.626 0 0 1 0-1.25h9c1.31 0 2.375-1.065 2.375-2.375S23.31 19.625 22 19.625h-7c-1.999 0-3.625-1.626-3.625-3.625s1.626-3.625 3.625-3.625h10a.626.626 0 0 1 0 1.25H15c-1.31 0-2.375 1.065-2.375 2.375S13.69 18.375 15 18.375h7c1.999 0 3.625 1.626 3.625 3.625S23.999 25.625 22 25.625" style="fill:#fff"/>
    <path d="M25 16.625c-1.999 0-3.625-1.626-3.625-3.625S23.001 9.375 25 9.375s3.625 1.626 3.625 3.625-1.626 3.625-3.625 3.625m0-6c-1.31 0-2.375 1.065-2.375 2.375S23.69 15.375 25 15.375 27.375 14.31 27.375 13 26.31 10.625 25 10.625m-12 18c-1.999 0-3.625-1.626-3.625-3.625s1.626-3.625 3.625-3.625 3.625 1.626 3.625 3.625-1.626 3.625-3.625 3.625m0-6c-1.31 0-2.375 1.065-2.375 2.375S11.69 27.375 13 27.375 15.375 26.31 15.375 25 14.31 22.625 13 22.625" style="fill:#e00"/>
</svg>
